X:0304
T:Lady Harriet Hope's Reel.
M:C
L:1/8
Q:1/2=100
I: :: ::
Z:Jack Campin * www.campin.me.uk * 2009
K:D
DFAd  A2     GF|d2fe/d/ eEEF|DFAd A2    GF|GEAF     DDD2:|
dAde (d/e/f) ed|cAeA    fAeA|dAde d/e/f ed|Ad cd/e/ ddd2 |
dAde  d/e/f  ed|edef    gfef|dBAG F2    dB|AFGE     FDD2:|
<end>
<start>
